X: 146
T: No_70_Song_of_the_Drum.krn
%%abc-version 2.0
%%abcx-abcm2ps-target-version 5.9.1 (29 Sep 2008)
%%abc-creator hum2abc beta
%%abcx-conversion-date 2020/08/10 18:54:57
%%gracespace 0 6 6
%%humdrum-veritas 3220597719
%%humdrum-veritas-data 528532227
%%linebreak <none>
%%barnumbers 0
L: 1/8
M: 3/4
%%staves {1 2}
V: 1 clef=bass
V: 2 clef=bass
K: Db
[V:1] D/ [I:setbarnb 1]| 
[V:2] z/ | 
[V:1] E>EE2D3/D/ ||  
[V:2] G,,G,, G,,G,, G,,G,, ||  
[V:1] [M:2/4]D4 | 
[V:2] [M:2/4]z4 | 
[V:1] B,<B,- !fermata!B,3/D/ ||  
[V:2] z4 ||  
[V:1] [M:3/4]E>EE2D3/D/ ||  
[V:2] [M:3/4]z6 ||  
[V:1] [M:2/4]D4 | 
[V:2] [M:2/4]z4 | 
[V:1] B,<B, B,3/D/ | 
[V:2] z4 | 
[V:1] D>DD2 | 
[V:2] z4 | 
[V:1] D<B, A,/A,3/ | 
[V:2] z4 | 
[V:1] A,<A, A,F, | 
[V:2] z4 | 
[V:1] E,<E, E,/E,3/ | 
[V:2] z4 | 
[V:1] D,>D,D,2 | 
[V:2] z4 | 
[V:1] B,,<B,, B,,3/E,/ | 
[V:2] z4 | 
[V:1] E,>E,E,2 | 
[V:2] z4 | 
[V:1] D,>D,D,2- | 
[V:2] z4 | 
[V:1] D,4 |]  
[V:2] z4 |]  


